packages/core/src/svgs/apm.svg

<svg width="24" height="24" viewBox="0 0 24 24" fill="none" xmlns="http://www.w3.org/2000/svg">
<g clip-path="url(#clip0_31_5974)">
<path d="M0 0H24V24H0V0Z" fill="url(#paint0_linear_31_5974)"/>
<path d="M13.4028 12.8629C13.0106 13.3506 12.1843 13.7076 11.5715 13.7076C10.9822 13.7076 10.2858 13.4034 10.2858 12.6911C10.2858 12.0126 10.8493 11.7696 11.4189 11.6535C12.0896 11.5142 13.0899 11.4315 13.7143 11.1294C13.7143 11.6959 13.7636 12.3744 13.4028 12.8629ZM12.0001 7.33735C13.0775 7.33735 13.7143 7.6725 13.7143 8.43878C13.7143 9.28135 12.4445 9.30364 11.8415 9.3465C10.5249 9.51492 9.50663 9.63492 8.83634 9.80292C8.14077 9.94735 7.59477 10.1394 7.22191 10.4278C6.43248 10.9369 6.00477 11.9111 6.00477 12.8299C5.95548 13.6708 6.25334 14.3916 6.87477 14.9681C7.49491 15.5689 8.43863 15.8574 9.75434 15.8574C10.5493 15.8574 11.2201 15.7374 11.8406 15.5209C12.4577 15.2744 13.0287 14.9252 13.5292 14.4881L13.7143 15.8574H18.0001C17.6272 15.5929 17.5715 14.7525 17.5715 14.2956V9.13092C17.5715 6.03278 15.1299 5.14307 12.2135 5.14307C9.73977 5.14307 6.65748 5.6925 6.42863 8.57164H10.2858C10.3501 7.76807 10.9226 7.33735 12.0001 7.33735ZM17.5715 17.5716H6.42863V18.8574H17.5715V17.5716Z" fill="white"/>
</g>
<defs>
<linearGradient id="paint0_linear_31_5974" x1="4.46486" y1="4.16229" x2="29.2059" y2="32.5787" gradientUnits="userSpaceOnUse">
<stop stop-color="#1A1E21"/>
<stop offset="1" stop-color="#06060A"/>
</linearGradient>
<clipPath id="clip0_31_5974">
<rect width="24" height="24" fill="white"/>
</clipPath>
</defs>
</svg>

<svg xmlns="http://www.w3.org/2000/svg" width="24" height="24" fill="none" viewBox="0 0 24 24"><g clip-path="url(#a)"><path fill="url(#b)" d="M0 0h24v24H0z"/><path fill="#fff" d="M13.403 12.863c-.392.488-1.219.845-1.832.845-.589 0-1.285-.305-1.285-1.017 0-.678.563-.921 1.133-1.038.67-.139 1.67-.222 2.295-.524 0 .567.05 1.245-.311 1.734M12 7.337c1.078 0 1.714.336 1.714 1.102 0 .842-1.27.865-1.873.908-1.316.168-2.334.288-3.005.456-.695.144-1.241.336-1.614.625-.79.509-1.217 1.483-1.217 2.402-.05.84.248 1.562.87 2.138.62.6 1.564.89 2.88.89.794 0 1.465-.12 2.086-.337a5.9 5.9 0 0 0 1.688-1.033l.185 1.37H18c-.373-.265-.428-1.106-.428-1.562V9.13c0-3.098-2.442-3.988-5.358-3.988-2.474 0-5.557.55-5.785 3.429h3.857c.064-.804.637-1.235 1.714-1.235m5.572 10.235H6.429v1.285h11.143z"/></g><defs><linearGradient id="b" x1="4.465" x2="29.206" y1="4.162" y2="32.579" gradientUnits="userSpaceOnUse"><stop stop-color="#1A1E21"/><stop offset="1" stop-color="#06060A"/></linearGradient><clipPath id="a"><path fill="#fff" d="M0 0h24v24H0z"/></clipPath></defs></svg>
